X: 169
T:Dilectus Deo et hominibus
N: Derived from Jos1404-Dilectus_Deo_et_hominibus.krn
C: Josquin des Prez
%%abc-version 2.0
%%abcx-abcm2ps-target-version 5.9.1 (29 Sep 2008)
%%abc-creator hum2abc beta
%%abcx-conversion-date 2019/02/12 16:15:46
%%abc-edited-by Jesse Rodin
%%abc-edited-by Chris Gage 06-07-2012
%%abcx-initial-encoding-date 2012/06/07/
%%humdrum-veritas 3181701346
%%humdrum-veritas-data 2819992510
%%linebreak <none>
%%barnumbers 0
L: 1/4
M: 2/1
Q: 1/2=120
%%staves [1 2 3 4]
V: 1 clef=treble
V: 2 clef=treble-8
V: 3 clef=treble-8
V: 4 clef=bass
K: C
[V:1] z8 | 
[V:2] z8 | 
[V:3] G8 | 
[V:4] G,8 | 
[V:1] G8 | 
[V:2] d8 | 
[V:3] B8 | 
[V:4] G,8 | 
[V:1] G8 | 
[V:2] e8 | 
[V:3] c4c4 | 
[V:4] C,4C,4 | 
[V:1] G4E4 | 
[V:2] e4c4 | 
[V:3] G8- | 
[V:4] C,8- | 
[V:1] E8- | 
[V:2] c8- | 
[V:3] G8 | 
[V:4] C,8 | 
[V:1] E8 | 
[V:2] c8 | 
[V:3] z4G4- | 
[V:4] z4C,4- | 
[V:1] z4E4 | 
[V:2] z4c4 | 
[V:3] G4A4- | 
[V:4] C,4A,,4 | 
[V:1] E4E4 | 
[V:2] c4c4 | 
[V:3] A4A4 | 
[V:4] A,,4A,,4 | 
[V:1] F8 | 
[V:2] d8 | 
[V:3] A4B4 | 
[V:4] D,8 | 
[V:1] E8 | 
[V:2] G8- | 
[V:3] c8 | 
[V:4] C,8- | 
[V:1] z4E4 | 
[V:2] G8 | 
[V:3] z4c4 | 
[V:4] C,8 | 
[V:1] G6G2 | 
[V:2] z8 | 
[V:3] c6c2 | 
[V:4] z8 | 
[V:1] G4G4 | 
[V:2] z4e4 | 
[V:3] B4B4 | 
[V:4] z4E,4 | 
[V:1] A8 | 
[V:2] c4d4 | 
[V:3] A4z2A2 | 
[V:4] F,4F,4 | 
[V:1] z4G4 | 
[V:2] e4e4 | 
[V:3] B4c4 | 
[V:4] E,4E,4 | 
[V:1] F4D4 | 
[V:2] A6B2 | 
[V:3] d8 | 
[V:4] D,4D,4 | 
[V:1] E4F4 | 
[V:2] c4F4 | 
[V:3] G4B4- | 
[V:4] C,4D,4 | 
[V:1] D4C4 | 
[V:2] F4E4 | 
[V:3] B2A2A4- | 
[V:4] D,4A,,4 | 
[V:1] D8 | 
[V:2] E4D4 | 
[V:3] A4^G4 | 
[V:4] B,,4B,,4 | 
[V:1] C8 | 
[V:2] E8 | 
[V:3] A8 | 
[V:4] A,,8 | 
[V:1] c6c2 | 
[V:2] A6A2 | 
[V:3] E6E2 | 
[V:4] A,,6A,,2 | 
[V:1] c4c4 | 
[V:2] A4A4 | 
[V:3] E4E4 | 
[V:4] A,,4A,,4 | 
[V:1] B8 | 
[V:2] D8 | 
[V:3] G4G4 | 
[V:4] G,,8- | 
[V:1] z4B3c | 
[V:2] z2d4e2 | 
[V:3] G4G4 | 
[V:4] G,,8 | 
[V:1] d2e4dc | 
[V:2] d2g4fe | 
[V:3] G4G4 | 
[V:4] z8 | 
[V:1] B2d3cBA | 
[V:2] dcBAG2g2- | 
[V:3] G4G4 | 
[V:4] z8 | 
[V:1] G2c4B2 | 
[V:2] g2fed4 | 
[V:3] G8 | 
[V:4] z8 | 
[V:1] c8 | 
[V:2] c4c4 | 
[V:3] z2A2A2G2 | 
[V:4] z2F,2F,2E,2 | 
[V:1] z8 | 
[V:2] c4c4 | 
[V:3] A2G2E2A2- | 
[V:4] F,2E,2C,2F,2- | 
[V:1] z8 | 
[V:2] c3Bc2d2- | 
[V:3] A2GFG2A2- | 
[V:4] F,2E,D,E,2F,2- | 
[V:1] z8 | 
[V:2] d2c4B2 | 
[V:3] A2G4F2 | 
[V:4] F,E,C,2D,4 | 
[V:1] z4E4 | 
[V:2] c4c4 | 
[V:3] G4z2G2- | 
[V:4] C,4C,4 | 
[V:1] E4F4 | 
[V:2] e4d4 | 
[V:3] G2A4B2- | 
[V:4] C,4D,4 | 
[V:1] G4G4 | 
[V:2] G4z2G2- | 
[V:3] B2c4d2 | 
[V:4] E,3D,C,2B,,2 | 
[V:1] G4G4 | 
[V:2] GAB2c4 | 
[V:3] e2d4c2- | 
[V:4] C,2G,,2C,4 | 
[V:1] G4G4 | 
[V:2] d4e4 | 
[V:3] c2B2c4- | 
[V:4] G,4C,4 | 
[V:1] z2A2A2G2 | 
[V:2] A4z4 | 
[V:3] c4z2c2 | 
[V:4] z2F,2F,2E,2 | 
[V:1] A2G2E2A2- | 
[V:2] c3de2f2 | 
[V:3] c2c2c2c2 | 
[V:4] F,2E,2C,2F,2- | 
[V:1] A2GFG2A2- | 
[V:2] c2f2e2A2 | 
[V:3] c4c4 | 
[V:4] F,2E,D,E,2F,2 | 
[V:1] A2G4^F2 | 
[V:2] B2c2d4 | 
[V:3] B2G2A4 | 
[V:4] G,2E,2D,4 | 
[V:1] G8 | 
[V:2] d8 | 
[V:3] G8 | 
[V:4] G,,8 | 
[V:1] z8 | 
[V:2] z8 | 
[V:3] G4G4 | 
[V:4] z2G,4F,E, | 
[V:1] z8 | 
[V:2] z8 | 
[V:3] A4G4 | 
[V:4] F,2D,2E,F,G,2 | 
[V:1] z8 | 
[V:2] z8 | 
[V:3] A4B4 | 
[V:4] F,2E,2D,4 | 
[V:1] z8 | 
[V:2] z8 | 
[V:3] c4z2c2- | 
[V:4] C,4F,4- | 
[V:1] z8 | 
[V:2] z8 | 
[V:3] c2d2c2d2- | 
[V:4] F,4E,2F,2 | 
[V:1] z8 | 
[V:2] z8 | 
[V:3] d2cBA2c2- | 
[V:4] G,4F,2A,2- | 
[V:1] z8 | 
[V:2] z8 | 
[V:3] cBAGA4 | 
[V:4] A,2G,4^F,2 | 
[V:1] z8 | 
[V:2] z8 | 
[V:3] G8- | 
[V:4] G,4z2C,2- | 
[V:1] z8 | 
[V:2] z8 | 
[V:3] G4z2G2- | 
[V:4] C,2B,,A,,B,,2C,2- | 
[V:1] z8 | 
[V:2] z8 | 
[V:3] G2FEF2G2- | 
[V:4] C,B,,A,,G,,A,,2G,,2 | 
[V:1] z8 | 
[V:2] z8 | 
[V:3] GFEDE2D2 | 
[V:4] C,6D,2 | 
[V:1] z8 | 
[V:2] z8 | 
[V:3] G6A2 | 
[V:4] E,2F,2G,4- | 
[V:1] z8 | 
[V:2] z8 | 
[V:3] B2c2d2c2- | 
[V:4] G,2F,E,F,2E,2 | 
[V:1] z8 | 
[V:2] z8 | 
[V:3] c2B2c4 | 
[V:4] D,4C,4 | 
[V:1] E6E2 | 
[V:2] c6c2 | 
[V:3] G6G2 | 
[V:4] C,6C,2 | 
[V:1] E4F4- | 
[V:2] c4d3c | 
[V:3] A8 | 
[V:4] A,,4D,4- | 
[V:1] F4E4 | 
[V:2] A2B2c4 | 
[V:3] F4G4 | 
[V:4] D,4C,4 | 
[V:1] z2E3DEF | 
[V:2] c8 | 
[V:3] A4G4 | 
[V:4] C,8 | 
[V:1] G2A4GF | 
[V:2] c8 | 
[V:3] z2E3DEF | 
[V:4] C,8 | 
[V:1] E2C2E2F2 | 
[V:2] c8 | 
[V:3] G2A4GF | 
[V:4] C,8 | 
[V:1] G4C4 | 
[V:2] c8- | 
[V:3] E3FG2A2- | 
[V:4] C,8 | 
[V:1] c6BA | 
[V:2] c8 | 
[V:3] A2G4^F2 | 
[V:4] A,,8 | 
[V:1] B8- | 
[V:2] z2d4e2 | 
[V:3] G8- | 
[V:4] G,,8 | 
[V:1] B8 | 
[V:2] d2g4fe | 
[V:3] G8 | 
[V:4] z4G,4- | 
[V:1] z4B4- | 
[V:2] d2G2g4 | 
[V:3] z4d4- | 
[V:4] G,4G,4- | 
[V:1] B4B4 | 
[V:2] g8 | 
[V:3] d4d4 | 
[V:4] G,4G,4 | 
[V:1] c6B2 | 
[V:2] g6f2 | 
[V:3] e6d2 | 
[V:4] C,6D,2 | 
[V:1] A4G4- | 
[V:2] f4e4 | 
[V:3] c4B4 | 
[V:4] F,4G,4 | 
[V:1] G2^FEF4 | 
[V:2] d8 | 
[V:3] A8 | 
[V:4] D,8 | 
[V:1] G8 | 
[V:2] B4z2c2- | 
[V:3] z4G4 | 
[V:4] E,4C,4 | 
[V:1] z8 | 
[V:2] c2d2e2c2 | 
[V:3] A4G4 | 
[V:4] F,4E,4 | 
[V:1] z8 | 
[V:2] d2c4f2- | 
[V:3] A4c4- | 
[V:4] F,4A,4 | 
[V:1] z4G4 | 
[V:2] f2ede4 | 
[V:3] c2BAB4 | 
[V:4] G,8 | 
[V:1] A4G4 | 
[V:2] f4e4 | 
[V:3] c8- | 
[V:4] F,4C,4 | 
[V:1] A4c4- | 
[V:2] f4e4 | 
[V:3] c8 | 
[V:4] F,4z4 | 
[V:1] c2BAB4 | 
[V:2] d8 | 
[V:3] G8 | 
[V:4] z4G,4 | 
[V:1] c4z4 | 
[V:2] c4z4 | 
[V:3] z2c2d2d2 | 
[V:4] A,4F,2F,2 | 
[V:1] z8 | 
[V:2] z8 | 
[V:3] B4c4 | 
[V:4] G,4E,2A,2- | 
[V:1] z4d4 | 
[V:2] z8 | 
[V:3] A2d3cBA | 
[V:4] A,G,F,E,D,4 | 
[V:1] e2e2c4 | 
[V:2] g4a2a2 | 
[V:3] G4z4 | 
[V:4] z8 | 
[V:1] d4B2e2- | 
[V:2] f4g4 | 
[V:3] z8 | 
[V:4] z8 | 
[V:1] edcBA4 | 
[V:2] e2a3gfe | 
[V:3] z4d4 | 
[V:4] z8 | 
[V:1] d4e4 | 
[V:2] d2g4a2- | 
[V:3] B4c4 | 
[V:4] z8 | 
[V:1] c4d2e2- | 
[V:2] a2f4g2- | 
[V:3] A4d2c2- | 
[V:4] z8 | 
[V:1] edd4^c2 | 
[V:2] gfd2e4 | 
[V:3] cdB2A4 | 
[V:4] z8 | 
[V:1] d8 | 
[V:2] d8 | 
[V:3] B8 | 
[V:4] G,4G,2G,2 | 
[V:1] z8 | 
[V:2] z8 | 
[V:3] A6d2- | 
[V:4] F,4D,4 | 
[V:1] z8 | 
[V:2] g4g2g2 | 
[V:3] d2cBc4 | 
[V:4] E,4E,4 | 
[V:1] z8 | 
[V:2] f4d4 | 
[V:3] z2d2d2d2 | 
[V:4] D,8 | 
[V:1] z8 | 
[V:2] e4e4 | 
[V:3] c4A4 | 
[V:4] z8 | 
[V:1] d4d2d2 | 
[V:2] d6e2 | 
[V:3] B4B4 | 
[V:4] z8 | 
[V:1] c4A4 | 
[V:2] f4c2f2- | 
[V:3] A3Bc2d2- | 
[V:4] F,8 | 
[V:1] B4B4 | 
[V:2] f2ede4 | 
[V:3] dcBAB4 | 
[V:4] G,8 | 
[V:1] A8- | 
[V:2] f8- | 
[V:3] c8 | 
[V:4] F,8 | 
[V:1] A8 | 
[V:2] f8 | 
[V:3] z4A4 | 
[V:4] F,8 | 
[V:1] z4A4 | 
[V:2] z8 | 
[V:3] d6c2 | 
[V:4] D,8 | 
[V:1] d6c2 | 
[V:2] z8 | 
[V:3] B4A4 | 
[V:4] z4D,4 | 
[V:1] B4A4 | 
[V:2] z4z2d2 | 
[V:3] G3ABcd2- | 
[V:4] G,6F,2 | 
[V:1] G3AB2A2- | 
[V:2] g6fe | 
[V:3] d2c2d2A2 | 
[V:4] E,4D,4 | 
[V:1] A2G4^F2 | 
[V:2] e4d4 | 
[V:3] c3BA4 | 
[V:4] C,4D,4 | 
[V:1] G8- | 
[V:2] B3cd2e2- | 
[V:3] G8- | 
[V:4] z4G,,3A,, | 
[V:1] G4z4 | 
[V:2] edc2d4 | 
[V:3] G8 | 
[V:4] B,,2C,4B,,2 | 
[V:1] G4z4 | 
[V:2] c4B3c | 
[V:3] z4G3A | 
[V:4] C,3D,E,F,G,2- | 
[V:1] z8 | 
[V:2] d2G4F2 | 
[V:3] B2c4B2 | 
[V:4] G,2F,E,D,4 | 
[V:1] [M:2/1](3:2:2E8E4 | 
[V:2] [M:2/1](3:2:2G8A4- | 
[V:3] [M:2/1](3:2:2c8c4- | 
[V:4] [M:2/1](3:2:2C,8A,,4 | 
[V:1] (3:2:2E8F4 | 
[V:2] (3A4c4d4 | 
[V:3] (3:2:2c4A8 | 
[V:4] (3:2:2A,,8D,4 | 
[V:1] (3:2:1G4A4(3:2:1G2 | 
[V:2] (3:2:2e8e4 | 
[V:3] (3:2:2c8B4 | 
[V:4] (3:2:2C,8E,4- | 
[V:1] (3:2:2G8^F4 | 
[V:2] (3:2:2c4d8 | 
[V:3] (3:2:2G4A8 | 
[V:4] (3:2:2E,4D,8 | 
[V:1] G8 | 
[V:2] G8 | 
[V:3] G4(3:2:2A2B4 | 
[V:4] E,8 | 
[V:1] E8- | 
[V:2] G8 | 
[V:3] (3:2:2c8B4 | 
[V:4] C,8 | 
[V:1] E8 ||  
[V:2] G8 ||  
[V:3] c8 ||  
[V:4] C,8 ||  
[V:1]  [K:C] [M:2/1]c8 | 
[V:2]  [K:C] [M:2/1]e8 | 
[V:3]  [K:C] [M:2/1]c6B2 | 
[V:4]  [K:C] [M:2/1]C,8 | 
[V:1] d4e4 | 
[V:2] d4c2c2- | 
[V:3] A4G4- | 
[V:4] F,4E,4 | 
[V:1] f8 | 
[V:2] c2BAB4 | 
[V:3] G4F4 | 
[V:4] D,8 | 
[V:1] e6de | 
[V:2] c8- | 
[V:3] G8 | 
[V:4] C,8 | 
[V:1] f2e4dc | 
[V:2] c4g4- | 
[V:3] z4e4- | 
[V:4] C,4C,4 | 
[V:1] B8 | 
[V:2] g8 | 
[V:3] e2d4e2- | 
[V:4] G,,8- | 
[V:1] z4B4- | 
[V:2] g2g4fe | 
[V:3] e2dcB4 | 
[V:4] G,,8- | 
[V:1] B4B4 | 
[V:2] d3cd2e2- | 
[V:3] z4G4 | 
[V:4] G,,8 | 
[V:1] c3de2d2- | 
[V:2] edefg4 | 
[V:3] A4G4 | 
[V:4] z8 | 
[V:1] dcc4B2 | 
[V:2] f2c2d4 | 
[V:3] A4G4 | 
[V:4] z8 | 
[V:1] c3BAGA2- | 
[V:2] c8- | 
[V:3] A3GFEF2- | 
[V:4] z8 | 
[V:1] A2GFE2G2- | 
[V:2] c8 | 
[V:3] F2EDC4 | 
[V:4] z8 | 
[V:1] G2FED4 | 
[V:2] B8 | 
[V:3] G8 | 
[V:4] z8 | 
[V:1] E8 | 
[V:2] c8 | 
[V:3] z4G4 | 
[V:4] z4C,4 | 
[V:1] z8 | 
[V:2] z8 | 
[V:3] G4A2c2- | 
[V:4] B,,2C,4E,2 | 
[V:1] z8 | 
[V:2] z8 | 
[V:3] c2B2c4 | 
[V:4] D,4z2C,2- | 
[V:1] z8 | 
[V:2] z8 | 
[V:3] c4c4 | 
[V:4] C,D,E,2F,E,A,2- | 
[V:1] z8 | 
[V:2] z8 | 
[V:3] B4A4 | 
[V:4] A,G,G,4^F,2 | 
[V:1] z8 | 
[V:2] z8 | 
[V:3] z2G3FGA | 
[V:4] G,4C,4- | 
[V:1] z8 | 
[V:2] z8 | 
[V:3] EFGAG2c2- | 
[V:4] C,4C,4 | 
[V:1] z8 | 
[V:2] z8 | 
[V:3] c2BAB2A2- | 
[V:4] D,8 | 
[V:1] z8 | 
[V:2] z8 | 
[V:3] AGFED2G2- | 
[V:4] C,4B,,4 | 
[V:1] z8 | 
[V:2] z8 | 
[V:3] G2^FE^F4 | 
[V:4] A,,8 | 
[V:1] z4G4- | 
[V:2] z4G4 | 
[V:3] G8 | 
[V:4] G,,8 | 
[V:1] G4G4 | 
[V:2] c4B4 | 
[V:3] z8 | 
[V:4] z8 | 
[V:1] A4B4 | 
[V:2] c4d4 | 
[V:3] z8 | 
[V:4] z8 | 
[V:1] c8 | 
[V:2] e4f4 | 
[V:3] z8 | 
[V:4] z8 | 
[V:1] B6cd | 
[V:2] g8- | 
[V:3] z8 | 
[V:4] z8 | 
[V:1] e2d4cB | 
[V:2] g8 | 
[V:3] z8 | 
[V:4] z8 | 
[V:1] A2G2A4 | 
[V:2] f4f4 | 
[V:3] z8 | 
[V:4] z8 | 
[V:1] G2ABc4 | 
[V:2] e2e4dc | 
[V:3] z8 | 
[V:4] z8 | 
[V:1] B2A4GF | 
[V:2] d4d4 | 
[V:3] z8 | 
[V:4] z8 | 
[V:1] E2FGA4 | 
[V:2] c2def4 | 
[V:3] z8 | 
[V:4] z8 | 
[V:1] G2F4ED | 
[V:2] e2d4cB | 
[V:3] z8 | 
[V:4] z8 | 
[V:1] E8 | 
[V:2] c8 | 
[V:3] z8 | 
[V:4] z2A,4G,F, | 
[V:1] z2E4E2 | 
[V:2] z2c4c2 | 
[V:3] z8 | 
[V:4] E,2A,2z2A,2- | 
[V:1] E2E2E2E2 | 
[V:2] c4c4 | 
[V:3] z8 | 
[V:4] A,2G,F,E,2G,2 | 
[V:1] F3GA_BA2- | 
[V:2] d4d4 | 
[V:3] z8 | 
[V:4] D,8 | 
[V:1] AGFED2G2- | 
[V:2] c4B4 | 
[V:3] z8 | 
[V:4] F,4G,4 | 
[V:1] G2^FEF4 | 
[V:2] A8 | 
[V:3] z8 | 
[V:4] D,8 | 
[V:1] G8 | 
[V:2] G2B3cd2- | 
[V:3] z8 | 
[V:4] G,8 | 
[V:1] z8 | 
[V:2] dcBAG2c2- | 
[V:3] z8 | 
[V:4] F,4E,4 | 
[V:1] z8 | 
[V:2] c2BAB4 | 
[V:3] z8 | 
[V:4] D,8 | 
[V:1] z4G2GG | 
[V:2] c4z4 | 
[V:3] c4c2c2- | 
[V:4] C,8 | 
[V:1] G3GG2G2 | 
[V:2] z8 | 
[V:3] ccc2c2B2 | 
[V:4] z8 | 
[V:1] F2E2G2D2 | 
[V:2] z8 | 
[V:3] A2c2G2z2 | 
[V:4] z8 | 
[V:1] z2D2E2F2- | 
[V:2] z8 | 
[V:3] A2B2c2d2- | 
[V:4] z8 | 
[V:1] F2E2C2D2 | 
[V:2] z8 | 
[V:3] dcc4B2 | 
[V:4] z8 | 
[V:1] C4z4 | 
[V:2] G6G2 | 
[V:3] c4z4 | 
[V:4] C,6B,,2 | 
[V:1] z8 | 
[V:2] A4B4 | 
[V:3] z8 | 
[V:4] C,4D,4 | 
[V:1] z8 | 
[V:2] c6B2 | 
[V:3] z8 | 
[V:4] E,6D,2 | 
[V:1] z8 | 
[V:2] A4G4 | 
[V:3] z8 | 
[V:4] C,4B,,4 | 
[V:1] z8 | 
[V:2] A8 | 
[V:3] z8 | 
[V:4] A,,3B,,C,2D,2- | 
[V:1] z8 | 
[V:2] A4B4- | 
[V:3] z8 | 
[V:4] D,E,F,2G,3F,/E,/ | 
[V:1] z8 | 
[V:2] B4c4 | 
[V:3] z8 | 
[V:4] D,4C,4 | 
[V:1] z8 | 
[V:2] d4B2c2- | 
[V:3] z8 | 
[V:4] z2G,4A,2- | 
[V:1] z8 | 
[V:2] c2B2A4 | 
[V:3] z8 | 
[V:4] A,2G,4^F,2 | 
[V:1] z2D2D2CD | 
[V:2] G4z2G2 | 
[V:3] z8 | 
[V:4] G,8- | 
[V:1] E2D4G2- | 
[V:2] GABcd2e2- | 
[V:3] z8 | 
[V:4] G,8- | 
[V:1] G2FED4 | 
[V:2] edc4B2 | 
[V:3] z4G4 | 
[V:4] G,8 | 
[V:1] C4z4 | 
[V:2] c4z2c2 | 
[V:3] A4c4 | 
[V:4] C,8 | 
[V:1] G4A4 | 
[V:2] d4f4 | 
[V:3] B4A4 | 
[V:4] z8 | 
[V:1] c4B4 | 
[V:2] e4d4 | 
[V:3] z4z2F2- | 
[V:4] C,4D,4 | 
[V:1] A4z2G2 | 
[V:2] z4G4 | 
[V:3] FGA2B2c2- | 
[V:4] F,4E,4 | 
[V:1] F2A4GF | 
[V:2] A4F4 | 
[V:3] c2BAB4 | 
[V:4] D,2D,2D,4 | 
[V:1] E8- | 
[V:2] z2G2A4 | 
[V:3] c8 | 
[V:4] C,8- | 
[V:1] E8 | 
[V:2] G4c3B | 
[V:3] z2G2A4 | 
[V:4] C,8 | 
[V:1] z2G2A4 | 
[V:2] cde4dc | 
[V:3] G4c2c2- | 
[V:4] z8 | 
[V:1] G4E2F2 | 
[V:2] d4c2c2- | 
[V:3] c2B2c4 | 
[V:4] z2G,2A,4 | 
[V:1] D4C2C2- | 
[V:2] c2B2c4 | 
[V:3] z2G4A2- | 
[V:4] G,4E,2F,2 | 
[V:1] C2B,2C2G2- | 
[V:2] z2d2e4 | 
[V:3] A2F2G2c2 | 
[V:4] D,2D,2C,4 | 
[V:1] G2F2G4 | 
[V:2] d4B2c2 | 
[V:3] B2A3GG2- | 
[V:4] z2D,2E,4 | 
[V:1] z4d4 | 
[V:2] A4G2G2- | 
[V:3] G2F2G2D2- | 
[V:4] D,4B,,2G,,2 | 
[V:1] c4B2A2- | 
[V:2] G2F2G2F2 | 
[V:3] D2C2D4 | 
[V:4] A,,2A,,2G,,2z2 | 
[V:1] AGG4^F2 | 
[V:2] G4A4 | 
[V:3] E4D4 | 
[V:4] z4z2D,2 | 
[V:1] G2B3AGF | 
[V:2] G4z4 | 
[V:3] G8- | 
[V:4] E,2G,3F,E,D, | 
[V:1] EDG4^F2 | 
[V:2] c4d4 | 
[V:3] G4A4 | 
[V:4] C,2E,2D,4 | 
[V:1] G8 | 
[V:2] d8 | 
[V:3] G8- | 
[V:4] G,,8- | 
[V:1] z4G4 | 
[V:2] z4g4 | 
[V:3] G8 | 
[V:4] G,,8 | 
[V:1] A4B4 | 
[V:2] f4d4 | 
[V:3] z8 | 
[V:4] z8 | 
[V:1] c4A4 | 
[V:2] e4f4 | 
[V:3] z8 | 
[V:4] z8 | 
[V:1] B4G4 | 
[V:2] d4e4 | 
[V:3] z8 | 
[V:4] z8 | 
[V:1] c6B2- | 
[V:2] e6d2 | 
[V:3] z8 | 
[V:4] z8 | 
[V:1] BAA4^G2 | 
[V:2] c4B4 | 
[V:3] z8 | 
[V:4] z8 | 
[V:1] A8 | 
[V:2] A8 | 
[V:3] z8 | 
[V:4] z4D,4 | 
[V:1] z8 | 
[V:2] z8 | 
[V:3] A4c4 | 
[V:4] F,4F,3F, | 
[V:1] z8 | 
[V:2] z8 | 
[V:3] c3cc2c2 | 
[V:4] F,2F,2C,4- | 
[V:1] z8 | 
[V:2] z8 | 
[V:3] G4c4 | 
[V:4] C,2D,2E,4 | 
[V:1] z8 | 
[V:2] z8 | 
[V:3] B4G2A2- | 
[V:4] D,4B,,2C,2- | 
[V:1] z4c4 | 
[V:2] z4A4 | 
[V:3] AGG4^F2 | 
[V:4] C,2B,,2A,,4 | 
[V:1] B4G2A2- | 
[V:2] d4e2f2- | 
[V:3] G3AB2c2- | 
[V:4] G,,2G,4F,2- | 
[V:1] AGG4^F2 | 
[V:2] fec2d4 | 
[V:3] cBG2A4 | 
[V:4] F,G,E,2D,4 | 
[V:1] G8 | 
[V:2] d8 | 
[V:3] G8 | 
[V:4] G,,8 | 
[V:1] [M:3/1]z12 | 
[V:2] [M:3/1]z12 | 
[V:3] [M:3/1]c8c4 | 
[V:4] [M:3/1]z12 | 
[V:1] [M:3/1]c8c4 | 
[V:2] [M:3/1]z12 | 
[V:3] c4c8 | 
[V:4] [M:3/1]z12 | 
[V:1] c4c8 | 
[V:2] z12 | 
[V:3] A4A8 | 
[V:4] F,8F,4 | 
[V:1] A4A4z4 | 
[V:2] f8f4 | 
[V:3] z4A8 | 
[V:4] F,4F,8 | 
[V:1] z4A8 | 
[V:2] f4f8 | 
[V:3] A4d8 | 
[V:4] D,4D,8 | 
[V:1] A4d8 | 
[V:2] d4d8 | 
[V:3] d6c2A4 | 
[V:4] z4D,8 | 
[V:1] d4B8 | 
[V:2] z4d8 | 
[V:3] B8G4- | 
[V:4] D,4G,8 | 
[V:1] d4c6BA | 
[V:2] g8^f4 | 
[V:3] G4c8 | 
[V:4] B,4A,8 | 
[V:1] B8z4 | 
[V:2] g8z4 | 
[V:3] d8z4 | 
[V:4] G,8z4 | 
[V:1] G8A4 | 
[V:2] e8d4 | 
[V:3] B4B4A4 | 
[V:4] G,8F,4 | 
[V:1] c4d8 | 
[V:2] c6B2B4 | 
[V:3] G8F4 | 
[V:4] E,4D,8 | 
[V:1] [M:2/1]G8 | 
[V:2] [M:2/1]c8 | 
[V:3] [M:2/1]G8 | 
[V:4] [M:2/1]C,8 | 
[V:1] z4E4- | 
[V:2] z4c4- | 
[V:3] z4G4 | 
[V:4] z4C,4- | 
[V:1] E4E4 | 
[V:2] c4c4 | 
[V:3] G4G4 | 
[V:4] C,4C,4 | 
[V:1] E4C4 | 
[V:2] c4c4 | 
[V:3] G4A4 | 
[V:4] C,4C,4 | 
[V:1] D4D4 | 
[V:2] B4B4 | 
[V:3] G6FE | 
[V:4] G,,4G,,4 | 
[V:1] C4z2c2 | 
[V:2] A4z2A2 | 
[V:3] E8- | 
[V:4] A,,8 | 
[V:1] c2BAB2c2- | 
[V:2] cdefg2e2- | 
[V:3] E8 | 
[V:4] z2A,,2G,,2A,,2- | 
[V:1] c2BAG2C2 | 
[V:2] e2dcB2A2 | 
[V:3] z4z2c2 | 
[V:4] A,,B,,C,D,E,2A,2 | 
[V:1] z4c4 | 
[V:2] e8- | 
[V:3] B2c4BA | 
[V:4] G,2A,4G,F, | 
[V:1] c2B4c2- | 
[V:2] e8 | 
[V:3] G8 | 
[V:4] E,8 | 
[V:1] c2BAG4- | 
[V:2] c2d2e4- | 
[V:3] A4B4 | 
[V:4] F,4E,4 | 
[V:1] G2A3GFE | 
[V:2] e2c4BA | 
[V:3] c4F4- | 
[V:4] C,4D,4- | 
[V:1] F4E4 | 
[V:2] B4c4- | 
[V:3] F4G4 | 
[V:4] D,4C,4- | 
[V:1] z2E3DE2 | 
[V:2] c8 | 
[V:3] z2G3FG2 | 
[V:4] C,8 | 
[V:1] F2G4E2 | 
[V:2] z2e3de2 | 
[V:3] A2G2c4 | 
[V:4] z2C,3B,,C,2 | 
[V:1] z2E3DE2 | 
[V:2] f2g4e2 | 
[V:3] z2G3FG2 | 
[V:4] D,2E,2C,4 | 
[V:1] F2G4E2 | 
[V:2] z2e3de2 | 
[V:3] A2G2c4 | 
[V:4] z2C,3B,,C,2 | 
[V:1] z2E3DE2 | 
[V:2] f2g4e2 | 
[V:3] z2G3FG2 | 
[V:4] D,2E,2C,4 | 
[V:1] F2G2E2A2 | 
[V:2] z2e3de2 | 
[V:3] A2G2c4 | 
[V:4] z2C,3B,,C,2 | 
[V:1] AGG4^F2 | 
[V:2] d2c2d4 | 
[V:3] B2G2A4 | 
[V:4] D,2E,2D,4 | 
[V:1] G8 |]  
[V:2] d8 |]  
[V:3] G8 |]  
[V:4] G,,8 |]  



